!!!!SEGMENT: pl-wn--sd-xvi-qu-273--129_gomolka-mikolaj--moga-rzec-panscy-wybrani.krn
!!!cenid: 15xx:334
!!!COM: Gomółka, Mikołaj
!!!COM-rismid: pe30013343
!!!CDT: ~1535->1591/04/30
!!!CNT: Polish
!!!GTL: Melodiae na psalterz polski
!!!OTL: CXXIX. Mogą rzec Pańscy wybrani:
!!!ONB: PSAL: CXXIX. Saepe expugnaveru(n)t me àiuventute mea: dicat nunc Iſrael.
!!!PDT: 1580
!!!AGN: Sacred
!!!SMS-siglum: PL-Wn
!!!SMS-shelfmark: SD XVI.Qu.273
!!!SMS-shelfwork: 129 G
!!!NIFC-rismid:
!!!ONB-nifc: Melodiae na psalterz polski
**kern	**text	**kern	**text	**kern	**text	**kern	**text
*part4	*part4	*part3	*part3	*part2	*part2	*part1	*part1
*staff4	*staff4	*staff3	*staff3	*staff2	*staff2	*staff1	*staff1
*clefF4	*	*clefC3	*	*clefC3	*	*clefC1	*
*k[b-]	*	*k[b-]	*	*k[b-]	*	*k[b-]	*
*g:	*	*g:	*	*g:	*	*g:	*
*M2/1	*	*M2/1	*	*M2/1	*	*M2/1	*
*met(C|)	*	*met(C|)	*	*met(C|)	*	*met(C|)	*
*I"BASSUS.	*	*I"TENOR.	*	*I"ALTUS.	*	*I"CANTUS.	*
=1-	=1	=1-	=1	=1-	=1	=1-	=1
1GG/	MO-	1B-/	MO-	1d\	MO-	1g\	MO-
2D/	-gą	2A/	-gą	2.d\	-gą	2f/	-gą
2GG/	rʒéc	4B-/	rʒéc	.	.	2g/	rʒéc
.	.	4c/	.	4c/	rʒéc	.	.
=2-	=2	=2-	=2	=2-	=2	=2-	=2
2G\	páń-	1d\	páń-	2.B-/	páń-	1b-\	páń-
1G\	-ſcy	.	.	.	.	.	.
.	.	.	.	4c/	.	.	.
.	.	2.d\	-ſcy	4d\	-ſcy	2a\	-ſcy
.	.	.	.	4e\	.	.	.
!	!	!	!	!LO:SIC:s=4f#:v	!	!	!
2F#X\	wy-	.	.	4f\	wy-	1a\	wy-
.	.	4c/	wy-	4e\	.	.	.
=3-	=3	=3-	=3	=3-	=3	=3-	=3
2G\	-brá-	1B-/	-brá-	2.d\	-brá-	.	.
2GG/	.	.	.	.	.	2g/	-brá-
.	.	.	.	4e\	.	.	.
2D/	-ni,	2A/	-ni,	2f\	-ni,	2a\	-ni,
2D/	Ʒ mło-	2A/	Ʒ mło-	2d\	Ʒ mło-	2d/	.
=4-	=4	=4-	=4	=4-	=4	=4-	=4
1.D\	-do-	1A/	-do-	1.d\	-do-	1.f/	Ʒ mło-
.	.	2A/	-śći	.	.	.	.
2BB-/	-śći	4B-/	.	2d\	-śći	2f/	-do-
.	.	4A/	.	.	.	.	.
=5-	=5	=5-	=5	=5-	=5	=5-	=5
2C/	nas	2G/	nas	2c/	nas	2e-X/	-śći
2D/	tra-	2F#X/	tra-	4B-/	tra-	1d/	nas
.	.	.	.	4A/	.	.	.
1E\	.	1G/	.	4G/	.	.	.
.	.	.	.	4F/	.	.	.
.	.	.	.	2B-/	-pi-	2c/	tra-
=6-	=6	=6-	=6	=6-	=6	=6-	=6
2D/	-pi-	2A/	-pi-	2F#X/	.	2d/	-pi-
2D/	-li,	2f\	-li,	2A/	-li,	2a\	-li,
!!LO:PB:g=original
2A\	Tra-	2e\	Tra-	2A/	Tra-	2a\	Tra-
2F#X\	-pi-	2d\	-pi-	2A/	-pi-	2a\	-pi-
=7-	=7	=7-	=7	=7-	=7	=7-	=7
1G\	-li	2d\	-li	2B-/	-li	1dd\	-li
.	.	4g\	ſro-	2b-\	ſro-	.	.
.	.	4f\	-dʒy	.	.	.	.
2A\	ſro-	2e\	po-	2a\	-dʒy	2cc#X\	ſro-
2D/	-dʒy	2.d\	-gá-	2a\	po-	2dd\	-dʒy
=8-	=8	=8-	=8	=8-	=8	=8-	=8
2G\	po-	.	.	2g\	-gá-	1.b-\	po-
.	.	4c\	-ni,	.	.	.	.
1G\	-gá-	4B-/	.	1d\	-ni,	.	.
.	.	4A/	.	.	.	.	.
.	.	4B-/	Prʒed-	.	.	.	.
.	.	4c/	.	.	.	.	.
2F#X\	.	1d\	.	2A/	.	2a\	-gá-
=9-	=9	=9-	=9	=9-	=9	=9-	=9
2G\	-ni,	.	.	2.B-/	Prʒed-	1g\	-ni,
2GG/	Prʒed-	2G/	-śię	.	.	.	.
.	.	.	.	4c/	.	.	.
2D/	-śię	2A/	nas	4d\	-śię	2f/	Prʒed-
.	.	.	.	4e\	.	.	.
2BB-/	nas	2d\	nie	2f\	nas	2d/	-śię
=10-	=10	=10-	=10	=10-	=10	=10-	=10
!	!	!	!	!	!	!LO:SIC:s=4e-:v	!
2C/	nie	2.c/	po-	2e-X\	nie	4eny/	nas
.	.	.	.	.	.	4f/	nie
!	!	!	!	!LO:SIC:s=2e-:v	!	!	!
2C/	po-	.	.	2eny\	.	1g\	po-
.	.	4B-/	.	.	.	.	.
1D\	-ʒ̇y-	4A/	.	2.d\	po-	.	.
.	.	4G/	.	.	.	.	.
.	.	2A/	-ʒ̇y-	.	.	2f/	-ʒ̇y-
.	.	.	.	4c/	-ʒ̇y-	.	.
=11-	=11	=11-	=11	=11-	=11	=11-	=11
*000/left	*	*	*	*	*	*	*
000GG/	-li.	000G/	-li.	000B-/	-ży-	000g\	-li.
==	==	==	==	==	==	==	==
*-	*-	*-	*-	*-	*-	*-	*-
!!!RDF**kern: l = terminal long
!!!system-decoration: s1,s2,s3,s4
!!!ENC: Marta Lawrence
!!!END: 2020-02-21
!!!URL-scan: https://polona.pl/item/melodiae-na-psalterz-polski,Nzk3MTM4ODQ/302 Scan on Polona
!!!IIIF: https://polona.pl/iiif/item/Nzk3MTM4ODQ/manifest.json
